src/icons/imba.svg

<svg viewBox="0 0 201 201" xmlns="http://www.w3.org/2000/svg">
  <path
    d="M161.96 61.952C158.917 75.857 129.327 141.528 125.529 156.409C122.831 166.984 136.758 180.26 139.084 171.568C145.924 146.02 176.404 85.317 178.107 72.675C179.575 61.778 163.447 55.159 161.96 61.952ZM124.832 110.144C125.743 109.914 126.7 109.947 127.592 110.238C128.485 110.53 129.277 111.068 129.876 111.791C130.476 112.515 130.858 113.393 130.978 114.324C131.099 115.256 130.953 116.202 130.558 117.054C130.581 117.066 130.579 117.069 130.579 117.07C129.309 119.805 127.408 122.199 125.032 124.055C122.656 125.911 119.873 127.176 116.912 127.746C113.512 128.391 109.676 128.928 105.408 129.334C90.092 130.787 73.665 112.327 84.784 112.844C101.336 113.614 114.532 112.397 124.832 110.144ZM141.088 92.797C140.274 94.8497 138.965 96.6687 137.276 98.0913C135.587 99.514 133.572 100.496 131.411 100.949C111.179 105.191 82.091 103.539 67.749 100.061C53.809 96.681 44.647 76.396 53.699 79.421C74.718 86.445 113.817 88.768 135.947 86.259C136.778 86.144 137.626 86.2486 138.404 86.5626C139.182 86.8765 139.865 87.3887 140.384 88.0484C140.903 88.708 141.241 89.492 141.363 90.3225C141.485 91.153 141.387 92.0009 141.08 92.782C141.091 92.786 141.091 92.786 141.088 92.797ZM149.486 68.997C148.821 71.1824 147.515 73.1174 145.737 74.5506C143.958 75.9839 141.79 76.8492 139.513 77.034C98.88 79.958 46.683 70.568 31.603 55.015C20.273 43.326 21 20.85 27.442 27.992C51.859 55.064 111.879 62.857 144.562 62.513C145.356 62.4948 146.143 62.6652 146.858 63.0101C147.573 63.355 148.197 63.8646 148.677 64.4971C149.157 65.1297 149.48 65.867 149.62 66.6487C149.76 67.4304 149.713 68.2342 149.482 68.994C149.484 68.996 149.484 68.996 149.483 68.997H149.486Z"
    fill="#FFC400"
  />
</svg>

<svg
  style="
    clip-rule: evenodd;
    fill-rule: evenodd;
    stroke-linejoin: round;
    stroke-miterlimit: 1.4142;
  "
  viewBox="0 0 201 201"
  xml:space="preserve"
  xmlns="http://www.w3.org/2000/svg"
>
  <path
    d="M161.96 61.952c-3.043 13.905-32.633 79.576-36.431 94.457-2.698 10.575 11.229 23.851 13.555 15.159 6.84-25.548 37.32-86.251 39.023-98.893 1.468-10.897-14.66-17.516-16.147-10.723zm-37.128 48.192a4.97 4.97 0 0 1 5.726 6.91c.023.012.021.015.021.016a19.038 19.038 0 0 1-13.667 10.676c-3.4.645-7.236 1.182-11.504 1.588-15.316 1.453-31.743-17.007-20.624-16.49 16.552.77 29.747-.447 40.047-2.7zm16.256-17.347a13.359 13.359 0 0 1-9.677 8.152c-20.232 4.242-49.32 2.59-63.662-.888-13.94-3.38-23.102-23.665-14.05-20.64 21.019 7.024 60.118 9.347 82.248 6.838a4.808 4.808 0 0 1 5.133 6.523c.011.004.011.004.008.015zm8.398-23.8a11.387 11.387 0 0 1-9.973 8.037c-40.633 2.924-92.83-6.466-107.91-22.019C20.273 43.326 21 20.85 27.442 27.992c24.417 27.072 84.437 34.865 117.12 34.521a5.022 5.022 0 0 1 4.92 6.481c.002.002.002.002.001.003z"
    style="fill: #ffc400; stroke-width: 1.2432"
  />
</svg>
